img/icons/mono/about-ecp.svg

<svg width="33" height="32" viewBox="0 0 33 32" fill="none" xmlns="http://www.w3.org/2000/svg">
<path d="M12.2855 6.6665H8.28548C7.93186 6.6665 7.59272 6.80698 7.34267 7.05703C7.09262 7.30708 6.95215 7.64622 6.95215 7.99984V26.6665C6.95215 27.0201 7.09262 27.3593 7.34267 27.6093C7.59272 27.8594 7.93186 27.9998 8.28548 27.9998H24.2855C24.6391 27.9998 24.9782 27.8594 25.2283 27.6093C25.4783 27.3593 25.6188 27.0201 25.6188 26.6665V7.99984C25.6188 7.64622 25.4783 7.30708 25.2283 7.05703C24.9782 6.80698 24.6391 6.6665 24.2855 6.6665H20.2855" stroke="black" stroke-width="2" stroke-linecap="round" stroke-linejoin="round"/>
<path d="M12.2852 18.6667L14.9518 21.3333L20.2852 16M20.2852 5.33333C20.2852 4.97971 20.1447 4.64057 19.8946 4.39052C19.6446 4.14048 19.3054 4 18.9518 4H13.6185C13.2649 4 12.9257 4.14048 12.6757 4.39052C12.4256 4.64057 12.2852 4.97971 12.2852 5.33333V9.33333H20.2852V5.33333Z" stroke="black" stroke-width="2" stroke-linecap="round" stroke-linejoin="round"/>
</svg>

<svg width="33" height="32" fill="none" xmlns="http://www.w3.org/2000/svg"><path d="M12.286 6.667h-4A1.333 1.333 0 006.951 8v18.666A1.333 1.333 0 008.285 28h16a1.333 1.333 0 001.334-1.334V8a1.334 1.334 0 00-1.334-1.333h-4" stroke="#000" stroke-width="2" stroke-linecap="round" stroke-linejoin="round"/><path d="M12.285 18.667l2.667 2.666L20.285 16m0-10.667A1.333 1.333 0 0018.952 4h-5.334a1.333 1.333 0 00-1.333 1.333v4h8v-4z" stroke="#000" stroke-width="2" stroke-linecap="round" stroke-linejoin="round"/></svg>
